outputs/icons/social/satisfied_round.svg

<svg xmlns="http://www.w3.org/2000/svg" width="1200" height="1200" fill="none"><g fill="#000" clip-path="url(#a)"><path d="M769 706.5c10.5-17.5 34-23 51.5-12s23 34 12 51.5C781.5 826.5 695 875 600 875s-181.5-48-232.5-129.5c-11-17.5-5.5-40.5 12-51.5s40.5-5.5 51.5 12c37 59 100 94 169 94s132-35 169-93.5M425 550c41.422 0 75-33.58 75-75 0-41.422-33.578-75-75-75s-75 33.578-75 75c0 41.42 33.579 75 75 75M775 550c41.42 0 75-33.58 75-75 0-41.422-33.58-75-75-75s-75 33.578-75 75c0 41.42 33.58 75 75 75"/><path fill-rule="evenodd" d="M100 600c0-276 223.5-500 499.5-500C876 100 1100 324 1100 600s-224 500-500.5 500c-276 0-499.5-224-499.5-500m100 0c0 221 179 400 400 400s400-179 400-400-179-400-400-400-400 179-400 400"/></g><defs><clipPath id="a"><path fill="#fff" d="M0 0h1200v1200H0z"/></clipPath></defs></svg>

<svg width="1200" height="1200" viewBox="0 0 1200 1200" fill="none" xmlns="http://www.w3.org/2000/svg"><g clip-path="url(#clip0_231_5358)"><path d="M769 706.5C779.5 689 803 683.5 820.5 694.5C838 705.5 843.5 728.5 832.5 746C781.5 826.5 695 875 600 875C505 875 418.5 827 367.5 745.5C356.5 728 362 705 379.5 694C397 683 420 688.5 431 706C468 765 531 800 600 800C669 800 732 765 769 706.5Z" fill="black"/><path d="M425 550C466.422 550 500 516.42 500 475C500 433.578 466.422 400 425 400C383.579 400 350 433.578 350 475C350 516.42 383.579 550 425 550Z" fill="black"/><path d="M775 550C816.42 550 850 516.42 850 475C850 433.578 816.42 400 775 400C733.58 400 700 433.578 700 475C700 516.42 733.58 550 775 550Z" fill="black"/><path fill-rule="evenodd" d="M100 600C100 324 323.5 100 599.5 100C876 100 1100 324 1100 600C1100 876 876 1100 599.5 1100C323.5 1100 100 876 100 600ZM200 600C200 821 379 1000 600 1000C821 1000 1000 821 1000 600C1000 379 821 200 600 200C379 200 200 379 200 600Z" fill="black"/></g><defs><clipPath id="clip0_231_5358"><path width="24" fill="white" d="M0 0H1200V1200H0V0z"/></clipPath></defs></svg>
